public/assets/token/Select.svg

<?xml version="1.0" encoding="UTF-8" standalone="no"?>
<!-- Created with Inkscape (http://www.inkscape.org/) -->
<svg id="svg2" xmlns="http://www.w3.org/2000/svg" height="200" width="200" version="1.0">
 <path id="path2382" d="m165.33 113.44a103.61 103.61 0 1 1 -207.22 0 103.61 103.61 0 1 1 207.22 0z" transform="matrix(.93739 0 0 .93739 42.143 -6.3392)" stroke-width="0" fill="#fff"/>
 <g id="layer1">
  <path id="path2413" d="m100 0c-55.2 0-100 44.8-100 100-5.0495e-15 55.2 44.8 100 100 100s100-44.8 100-100-44.8-100-100-100zm0 12.812c48.13 0 87.19 39.058 87.19 87.188s-39.06 87.19-87.19 87.19-87.188-39.06-87.188-87.19 39.058-87.188 87.188-87.188zm1.47 21.25c-5.45 0.03-10.653 0.737-15.282 2.063-4.699 1.346-9.126 3.484-12.876 6.219-3.238 2.362-6.333 5.391-8.687 8.531-4.159 5.549-6.461 11.651-7.063 18.687-0.04 0.468-0.07 0.868-0.062 0.876 0.016 0.016 21.702 2.687 21.812 2.687 0.053 0 0.113-0.234 0.282-0.937 1.941-8.085 5.486-13.521 10.968-16.813 4.32-2.594 9.808-3.612 15.778-2.969 2.74 0.295 5.21 0.96 7.38 2 2.71 1.301 5.18 3.361 6.94 5.813 1.54 2.156 2.46 4.584 2.75 7.312 0.08 0.759 0.05 2.48-0.03 3.219-0.23 1.826-0.7 3.378-1.5 4.969-0.81 1.597-1.48 2.514-2.76 3.812-2.03 2.077-5.18 4.829-10.78 9.407-3.6 2.944-6.04 5.156-8.12 7.343-4.943 5.179-7.191 9.069-8.564 14.719-0.905 3.72-1.256 7.55-1.156 13.19 0.025 1.4 0.062 2.73 0.062 2.97v0.43h21.598l0.03-2.4c0.03-3.27 0.21-5.37 0.56-7.41 0.57-3.27 1.43-5 3.94-7.81 1.6-1.8 3.7-3.76 6.93-6.47 4.77-3.991 8.11-6.99 11.26-10.125 4.91-4.907 7.46-8.26 9.28-12.187 1.43-3.092 2.22-6.166 2.46-9.532 0.06-0.816 0.07-3.03 0-3.968-0.45-7.043-3.1-13.253-8.15-19.032-0.8-0.909-2.78-2.887-3.72-3.718-4.96-4.394-10.69-7.353-17.56-9.094-4.19-1.062-8.23-1.6-13.35-1.75-0.78-0.023-1.59-0.036-2.37-0.032zm-10.908 103.6v22h21.998v-22h-21.998z"/>
 </g>
</svg>

<?xml version="1.0" encoding="UTF-8" standalone="no"?>
<!DOCTYPE svg PUBLIC "-//W3C//DTD SVG 1.1//EN" "http://www.w3.org/Graphics/SVG/1.1/DTD/svg11.dtd">

<!-- Created with Vectornator (http://vectornator.io/) -->
<svg height="100%" stroke-miterlimit="10" style="fill-rule:nonzero;clip-rule:evenodd;stroke-linecap:round;stroke-linejoin:round;" version="1.1" viewBox="0 0 200 200" width="100%" xml:space="preserve" xmlns="http://www.w3.org/2000/svg" xmlns:vectornator="http://vectornator.io" xmlns:xlink="http://www.w3.org/1999/xlink">
<metadata>
<vectornator:setting key="IsTimeLapseWatermarkDisabled" value="false"/>
<vectornator:setting key="UndoHistoryDisabled" value="true"/>
<vectornator:setting key="VNDimensionsVisible" value="true"/>
<vectornator:setting key="VNSnapToGuides" value="true"/>
<vectornator:setting key="WDCMYKEnabledKey" value="false"/>
<vectornator:setting key="WDDisplayWhiteBackground" value="false"/>
<vectornator:setting key="WDDynamicGuides" value="false"/>
<vectornator:setting key="WDGuidesVisible" value="true"/>
<vectornator:setting key="WDIsolateActiveLayer" value="false"/>
<vectornator:setting key="WDOutlineMode" value="false"/>
<vectornator:setting key="WDRulersVisible" value="true"/>
<vectornator:setting key="WDSnapToEdges" value="false"/>
<vectornator:setting key="WDSnapToGrid" value="false"/>
<vectornator:setting key="WDSnapToPoints" value="false"/>
<vectornator:setting key="WDUnits" value="Points"/>
</metadata>
<defs/>
<g id="Untitled" vectornator:layerName="Untitled">
<path d="M197.122 99.9983C197.122 153.638 153.638 197.121 99.9987 197.121C46.3592 197.121 2.87574 153.638 2.87573 99.9983C2.87572 46.3588 46.3592 2.87536 99.9987 2.87536C153.638 2.87536 197.122 46.3588 197.122 99.9983Z" fill="#92c5fd" fill-rule="evenodd" opacity="1" stroke="none"/>
</g>
<g id="layer1" vectornator:layerName="layer1">
<path d="M100 0C44.8 0 0 44.8 0 100C-5.0495e-15 155.2 44.8 200 100 200C155.2 200 200 155.2 200 100C200 44.8 155.2 0 100 0ZM100 12.812C148.13 12.812 187.19 51.87 187.19 100C187.19 148.13 148.13 187.19 100 187.19C51.87 187.19 12.812 148.13 12.812 100C12.812 51.87 51.87 12.812 100 12.812ZM101.47 34.062C96.02 34.092 90.817 34.799 86.188 36.125C81.489 37.471 77.062 39.609 73.312 42.344C70.074 44.706 66.979 47.735 64.625 50.875C60.466 56.424 58.164 62.526 57.562 69.562C57.522 70.03 57.492 70.43 57.5 70.438C57.516 70.454 79.202 73.125 79.312 73.125C79.365 73.125 79.425 72.891 79.594 72.188C81.535 64.103 85.08 58.667 90.562 55.375C94.882 52.781 100.37 51.763 106.34 52.406C109.08 52.701 111.55 53.366 113.72 54.406C116.43 55.707 118.9 57.767 120.66 60.219C122.2 62.375 123.12 64.803 123.41 67.531C123.49 68.29 123.46 70.011 123.38 70.75C123.15 72.576 122.68 74.128 121.88 75.719C121.07 77.316 120.4 78.233 119.12 79.531C117.09 81.608 113.94 84.36 108.34 88.938C104.74 91.882 102.3 94.094 100.22 96.281C95.277 101.46 93.029 105.35 91.656 111C90.751 114.72 90.4 118.55 90.5 124.19C90.525 125.59 90.562 126.92 90.562 127.16L90.562 127.59L112.16 127.59L112.19 125.19C112.22 121.92 112.4 119.82 112.75 117.78C113.32 114.51 114.18 112.78 116.69 109.97C118.29 108.17 120.39 106.21 123.62 103.5C128.39 99.509 131.73 96.51 134.88 93.375C139.79 88.468 142.34 85.115 144.16 81.188C145.59 78.096 146.38 75.022 146.62 71.656C146.68 70.84 146.69 68.626 146.62 67.688C146.17 60.645 143.52 54.435 138.47 48.656C137.67 47.747 135.69 45.769 134.75 44.938C129.79 40.544 124.06 37.585 117.19 35.844C113 34.782 108.96 34.244 103.84 34.094C103.06 34.071 102.25 34.058 101.47 34.062ZM90.562 137.662L90.562 159.662L112.56 159.662L112.56 137.662L90.562 137.662Z" fill="#3c82f5" fill-rule="evenodd" opacity="1" stroke="none"/>
</g>
</svg>
